X:1
T:A Landlady of France
M:2/4
L:1/8
K:G
 z2 z D| DG FA| G2 FE| DG FA| G2 z D/2D/2| DG GA| GB dB| A2 D2| D2 dc|\
 BA Bc| dd BA| GF GE| D2 B,C| DE FG| AG FE| D2 G2| G3 z|
